images/coins/BCN.svg

<svg xmlns="http://www.w3.org/2000/svg" width="226.777" height="226.777" viewBox="0 0 226.777 226.777"><path d="M130.324 116.855h-27.473v34.143h27.647c12.364 0 25.627-4.413 25.627-15.501.001-11.089-7.552-18.642-25.801-18.642zm16.68-28.946c0-10.697-10.008-15.404-19.819-15.404h-24.333V104h23.743c9.812 0 20.409-5.396 20.409-16.091z"/><path d="M113.533.288C50.989.288.288 50.989.288 113.533c0 62.543 50.701 113.244 113.245 113.244 62.543 0 113.244-50.701 113.244-113.244C226.777 50.989 176.076.288 113.533.288zm18.165 169.228H82.705V140.5h-30.09v-14.717h30.091v-19.526H52.615V91.538h30.091V57.007h52.916c18.841 0 30.811 15.762 30.811 28.124 0 12.364-11.381 19.361-11.381 19.361s19.622 6.477 19.622 29.433c-.001 22.96-19.821 35.591-42.976 35.591z"/></svg>

<?xml version="1.0" encoding="utf-8"?>
<!-- Generator: Adobe Illustrator 22.0.1, SVG Export Plug-In . SVG Version: 6.00 Build 0)  -->
<svg version="1.1" id="Layer_1" xmlns="http://www.w3.org/2000/svg" xmlns:xlink="http://www.w3.org/1999/xlink" x="0px" y="0px"
	 viewBox="0 0 226.8 226.8" style="enable-background:new 0 0 226.8 226.8;" xml:space="preserve">
<style type="text/css">
	.st0{fill:#DB5384;}
</style>
<path class="st0" d="M130.3,116.9h-27.5V151h27.6c12.4,0,25.6-4.4,25.6-15.5C156.1,124.4,148.6,116.9,130.3,116.9z M147,87.9
	c0-10.7-10-15.4-19.8-15.4h-24.3V104h23.7C136.4,104,147,98.6,147,87.9z"/>
<path class="st0" d="M113.5,0.3C51,0.3,0.3,51,0.3,113.5c0,62.5,50.7,113.2,113.2,113.2c62.5,0,113.2-50.7,113.2-113.2
	C226.8,51,176.1,0.3,113.5,0.3z M131.7,169.5h-49v-29H52.6v-14.7h30.1v-19.5H52.6V91.5h30.1V57h52.9c18.8,0,30.8,15.8,30.8,28.1
	c0,12.4-11.4,19.4-11.4,19.4s19.6,6.5,19.6,29.4C174.7,156.9,154.9,169.5,131.7,169.5L131.7,169.5z"/>
</svg>
